X:2760
T:Harlequin Amulet
A:Wyresdale, Lancashire
B:H.S.J. Jackson, 1823
L:1/8
M:6/8
O:England
Z:Richard Robinson <URL:http://www.qualmograph.org.uk/contact.html>
K:G
g/f/ | \
edc BAG | B>cB B2g/f/ | edc BAG | A>BA A2g/f/ | \
edc BAG | B>cB B2c    | def gdB | A>BA A2 ::
d | \
{Bc}d2B {Bc}d2B | d2B d2g | {cd}e2c {cd}e2c | e2c e2f | \
g2a {ga}b2a | g2e edB | def g2B | A>BA A2 ::

